X:1
T:Hilkiah, LM
T:Hilkiah, LM
T:Lowell Mason, 1839
T:Public Domain Courtesy of the Cyber Hymnal™
C:Lowell Mason, 1839
Z:Public Domain
Z:Courtesy of the Cyber Hymnal™
%%score ( 1 2 ) ( 3 4 )
L:1/8
Q:1/4=132
M:3/2
K:G
V:1 treble 
V:2 treble 
V:3 bass 
V:4 bass 
V:1
 E2 E2 E2 | [EG]6 E2 [^DA]2 [EG]2 | [^DF]6 [DF]2 [DF]2 [DF]2 | [EG]2 [EG]2 [EA]4 [DF]4 | %4
 !fermata![DG]4 z2 [GB]2 [GB]2 [GB]2 | [Gc]6 [=FB]2 [EA]2 [E^G]2 | [EA]6 [FA]2 [FA]2 [FA]2 | %7
 [GB]2 [FA]2 [EG]4 [^DF]4 | !fermata!E4 z2 |] %9
V:2
 E2 E2 E2 | x6 E2 x4 | x12 | x12 | x12 | x12 | x12 | x12 | E4 x2 |] %9
V:3
 E,2 E,2 E,2 | [E,B,]6 [G,B,]2 [F,B,]2 [E,B,]2 | [B,,B,]6 [B,,B,]2 [B,,B,]2 [B,,B,]2 | %3
 [E,B,]2 [C,C]2 [A,,C]4 [D,A,]4 | !fermata![G,,B,]4 z2 [G,D]2 [G,D]2 [G,D]2 | %5
 [C,E]6 [D,D]2 [E,C]2 [E,B,]2 | [A,,C]6 [D,D]2 [D,D]2 [D,D]2 | [G,,D]2 [A,,C]2 [B,,B,]4 B,2 A,2 | %8
 !fermata![E,G,]4 z2 |] %9
V:4
 E,2 E,2 E,2 | x12 | x12 | x12 | x12 | x12 | x12 | x8 B,,4 | x6 |] %9

